assets/sonr-icons/funds-deposit.svg

<svg xmlns="http://www.w3.org/2000/svg" width="24" height="24" fill="none"><path fill="currentColor" d="M6 7a1 1 0 0 0-1 1v10a3 3 0 0 0 3 3h8a3 3 0 0 0 3-3V8a1 1 0 0 0-1-1zm5.293 2.293a1 1 0 0 1 1.415 0l2 2a1.001 1.001 0 0 1-1.415 1.414L13 12.414V18a1 1 0 0 1-2 0v-5.586l-.293.293a1 1 0 1 1-1.415-1.414zM3 4a1 1 0 0 1 1-1h16a1 1 0 0 1 0 2H4a1 1 0 0 1-1-1"/></svg>

<svg xmlns="http://www.w3.org/2000/svg" width="24" height="24" fill="none" viewBox="0 0 24 24"><path fill="#000" d="M6 7C5.448 7 5 7.448 5 8V18C5 19.657 6.343 21 8 21H16C17.657 21 19 19.657 19 18V8C19 7.448 18.552 7 18 7H6ZM11.293 9.293C11.684 8.902 12.317 8.902 12.708 9.293L14.708 11.293C15.099 11.684 15.099 12.317 14.708 12.707C14.317 13.097 13.684 13.098 13.293 12.707L13 12.414V18C13 18.552 12.552 19 12 19C11.448 19 11 18.552 11 18V12.414L10.707 12.707C10.316 13.098 9.683 13.098 9.292 12.707C8.901 12.316 8.901 11.683 9.292 11.293L11.292 9.293H11.293ZM3 4C3 3.448 3.448 3 4 3H20C20.552 3 21 3.448 21 4C21 4.552 20.552 5 20 5H4C3.448 5 3 4.552 3 4Z"/></svg>
